packages/core/src/svgs/boson.svg

<svg width="24" height="24" viewBox="0 0 24 24" fill="none" xmlns="http://www.w3.org/2000/svg">
<g clip-path="url(#clip0_31_7310)">
<path d="M0 0H24V24H0V0Z" fill="#192A3E"/>
<path fill-rule="evenodd" clip-rule="evenodd" d="M4.28564 6.85693H19.7142V17.5712H4.28564V6.85693ZM5.57136 8.14265H18.4285V16.2855H5.57136V8.14265ZM17.5714 15.4284H17.5028C16.9653 15.4268 16.4372 15.2868 15.9696 15.0218C15.5019 14.7568 15.1104 14.3758 14.8328 13.9155C14.5328 14.2326 13.9585 14.6698 13.3114 14.6698C12.5528 14.6698 12.0728 14.0098 11.9699 13.7655C11.8671 13.5298 11.7685 13.2298 11.6614 12.9169C11.3656 12.0469 11.0356 11.0741 10.5728 11.0741C10.2128 11.0741 9.83564 11.9441 9.6085 12.6598C9.51071 13.4312 9.13258 14.1396 8.54615 14.6501C7.95973 15.1607 7.20598 15.4377 6.4285 15.4284V14.2498H6.49279C6.75767 14.2476 7.01952 14.1931 7.26333 14.0895C7.50714 13.9859 7.72812 13.8353 7.91363 13.6462C8.09914 13.4571 8.24553 13.2333 8.34442 12.9875C8.44331 12.7418 8.49276 12.479 8.48993 12.2141C8.49288 11.9437 8.44138 11.6756 8.3385 11.4256C8.23563 11.1756 8.08347 10.9488 7.89111 10.7589C7.69875 10.5689 7.47012 10.4196 7.21884 10.3199C6.96756 10.2201 6.69878 10.172 6.4285 10.1784V8.99979H6.49279C7.05213 9.00138 7.60082 9.15291 8.08172 9.43858C8.56262 9.72425 8.95813 10.1336 9.22707 10.6241C9.47136 10.2512 9.9385 9.7755 10.5728 9.7755C11.3571 9.7755 11.9271 10.1612 12.0942 10.6326L12.2828 11.1898C12.6042 12.1755 12.9942 13.3669 13.5471 13.3669C14.0485 13.3669 14.2628 12.4112 14.3956 11.7212C14.5039 10.9592 14.886 10.2626 15.4704 9.76178C16.0549 9.26093 16.8017 8.99006 17.5714 8.99979V10.1784H17.5028C17.2383 10.1812 16.9769 10.236 16.7336 10.3399C16.4903 10.4437 16.2698 10.5944 16.0847 10.7835C15.8997 10.9725 15.7536 11.1961 15.655 11.4416C15.5564 11.6871 15.5071 11.9496 15.5099 12.2141C15.507 12.4844 15.5585 12.7526 15.6614 13.0026C15.7642 13.2526 15.9164 13.4793 16.1087 13.6693C16.3011 13.8592 16.5297 14.0085 16.781 14.1083C17.0323 14.208 17.3011 14.2561 17.5714 14.2498V15.4284Z" fill="url(#paint0_linear_31_7310)"/>
</g>
<defs>
<linearGradient id="paint0_linear_31_7310" x1="17.5714" y1="12.2141" x2="6.4285" y2="12.2141" gradientUnits="userSpaceOnUse">
<stop stop-color="#1EF6AD"/>
<stop offset="1" stop-color="#5DF6BD"/>
</linearGradient>
<clipPath id="clip0_31_7310">
<rect width="24" height="24" fill="white"/>
</clipPath>
</defs>
</svg>

<svg xmlns="http://www.w3.org/2000/svg" width="24" height="24" fill="none" viewBox="0 0 24 24"><g clip-path="url(#a)"><path fill="#192A3E" d="M0 0h24v24H0z"/><path fill="url(#b)" fill-rule="evenodd" d="M4.286 6.857h15.428V17.57H4.286zM5.57 8.143H18.43v8.142H5.57zm12 7.285h-.068a3.13 3.13 0 0 1-2.67-1.513c-.3.318-.874.755-1.522.755-.758 0-1.238-.66-1.341-.905-.103-.235-.202-.535-.309-.848-.295-.87-.625-1.843-1.088-1.843-.36 0-.737.87-.965 1.586a3.167 3.167 0 0 1-3.18 2.768V14.25h.065a2.013 2.013 0 0 0 1.997-2.036 2.014 2.014 0 0 0-2.062-2.036V9h.065a3.13 3.13 0 0 1 2.734 1.624c.244-.373.711-.849 1.346-.849.784 0 1.354.386 1.521.858l.189.557c.321.986.711 2.177 1.264 2.177.502 0 .716-.956.849-1.646A3.17 3.17 0 0 1 17.57 9v1.178h-.068a2.013 2.013 0 0 0-1.993 2.036 2.015 2.015 0 0 0 2.061 2.036z" clip-rule="evenodd"/></g><defs><linearGradient id="b" x1="17.571" x2="6.428" y1="12.214" y2="12.214" gradientUnits="userSpaceOnUse"><stop stop-color="#1EF6AD"/><stop offset="1" stop-color="#5DF6BD"/></linearGradient><clipPath id="a"><path fill="#fff" d="M0 0h24v24H0z"/></clipPath></defs></svg>
